X:164
T:Reel des Chantiers
N:répertoire de Joseph Allard
M:2/4
L:1/16
Z:Bruce Osborne - bosborne@kos.net
K:D
FG | Adcd Adcd | ecde fdB2 | g2f2 ecAc | edcB AGFG |
     Adcd Adcd | ecde fdB2 | g2f2 ecAc | e2d2 d2 ::
FG | ABAG FDFA | BABc d2dB | AFdB AFDF | G2E2 E2FG |
     ABAG FDFA | BABc d2cd | efed cABc | d2f2 d2 :|
